X:225
T:the Earl of Mansfield
O:scotland
R:March
M:2/4
K:D
fe3|\
d3e d2A2|d>ef>g a2g>f|e3f e2A2|c2e>f g2f>e|\
d3e d2A2|d>ef>g a2g<f|g2e2 c2A2|d4 d2::\
a>g|\
f3g f2A2|d>ef>g a2g>f|e3f e2A2|c2e>f g2f>e|f3g f2A2|d>ef>g a2g<f|g2e2 c2A2| d4 d2::\
a>g|\
f2d2 d2a>g|f2d2 d2e>f|g2A2 c2e2|c2A2 A2a>g|\
f2d2 d2a>g|f2d2 d2e>f|g2A2 c2e2|d4 d2a>g|\
f2d2 d2a>g|f2d2 d2e>f|g2A2 c2e2|c2A2 A2B>c|\
d3e d2A2|d>ef>g a2g<f|g2e2 c2A2|d4 d2|]
